X: 11
T:Hunt the Squirrel, Headington 2
T:Drawback, Headington
M:4/4
L:1/8
A:Headington
P:A(A2B2)4A
K:G
Q:364
P:A
dede d2B2|ABAB A2G2|dede d2B2|AGAB G4||
P:B
d2g2 d2g2|d2b2 a4  |d3 e dcBA|GBAF G4||
